picto/arrow-pointing-right-red-framed.svg

<svg class="color-immutable" width="30" height="30" viewBox="0 0 30 30" fill="none" xmlns="http://www.w3.org/2000/svg"><path d="M30 0H0V30H30V0Z" fill="#9B2423"/><path d="M25.5 15.0002L16.2242 6H9.9948L16.2242 12.5036H6V15.0002V17.4964H16.2242L9.9948 24H16.2242L25.5 15.0002Z" fill="white"/></svg>

<svg class="color-immutable" width="30" height="30" viewBox="0 0 30 30" fill="none" xmlns="http://www.w3.org/2000/svg"><g clip-path="url(#a)"><path d="M30 0H0v30h30V0Z" fill="#9B2423"/><path d="m25.5 15-9.276-9h-6.23l6.23 6.504H6v4.992h10.224L9.994 24h6.23l9.276-9Z" fill="#fff"/></g><defs><clipPath id="a"><path fill="#fff" d="M0 0h30v30H0z"/></clipPath></defs></svg>
